X:1
T:Title
%%score { ( 1 3 ) | ( 2 4 ) }
L:1/8
Q:1/4=100
M:4/4
K:G
V:1 treble nm="Grand Piano"
V:3 treble 
V:2 bass 
V:4 bass 
V:1
 G3 F G2 D2 | E2 [DF]2 [DG]2 [DB]2 | d3 d c2 z A | B2 G2 [FA]4 | [GB]2 [=Fd]2 [Ec]2 [EA]2 | %5
w: S.~M.~Bixby * * *|||||
 F2 c2 B2 G2 | F3 [DG] [DA]2 .[B,EA]2 | [A,DF]2[K:bass] .[A,^CE]2 [F,D]4 | [DB]3 [DB] [Dc]2 [Dd]2 | %9
w: ||||
 [Ed]2 [Ec]2 [DEB]2 [CEA]2 | F2 ED D2 d[EAc] |[M:8/4] [DGB]2 .[DFA]2 [B,G]4 z8 |[M:4/4] [CEG]8 | %13
w: ||||
 [G,B,DG]8 |] %14
w: |
V:2
 G,3 F, G,2 D,2 | [C,G,C]2 [C,A,]2 [B,,G,]2 [G,,G,]2 | [G,B,G]3 [G,B,G] [G,EG]2 [G,E]2 | %3
 [G,DG]2[K:bass] [E,C]2 [D,D]4 | [G,D]2 [G,B,]2 [C,C]2 [C,C]2 | [D,A,D]2 [F,A,D]2 [G,D]2 [G,B,D]2 | %6
 [D,A,D]3 [B,,G,] [F,,F,]2 z G | A,,2 z G, D,4 | [G,,G,]3 [G,,G,] [A,,F,]2 [B,,G,]2 | %9
 [C,^G,]2 [C,A,]2 C,2 C,2 | [D,A,D]2 [C,F,]2 [B,,G,]2 [G,,B,G]C, |[M:8/4] .D,3 C G,,4 z8 | %12
[M:4/4] C,8 | G,,8 |] %14
V:3
 x8 | x8 | z4 z2 G2 | x8 | x8 | x8 | x8 | x2[K:bass] x6 | x8 | x8 | x8 |[M:8/4] x16 |[M:4/4] x8 | %13
 x8 |] %14
V:4
 x8 | x8 | x8 | x2[K:bass] x6 | x8 | x8 | z4 z2 G,,2 | z2 A,,2 z4 | x8 | x8 | x8 | %11
[M:8/4] z2 D,2 z4 z8 |[M:4/4] x8 | x8 |] %14

